modules/hawcons-filled/icons/icon-48-notebook.svg

<svg width="32" height="32" xmlns="http://www.w3.org/2000/svg"><path d="M9.997 3A2.002 2.002 0 0 0 8 5.007v22.986A2 2 0 0 0 9.997 30h15.006A2.002 2.002 0 0 0 27 27.993V5.007A2 2 0 0 0 25.003 3H9.997zM6 10v1h2v-1H6zm0 4v1h2v-1H6zm0-8v1h2V6H6zm0 16v1h2v-1H6zm0 4v1h2v-1H6zm0-8v1h2v-1H6zm2-8v1h2v-1H8zm0 4v1h2v-1H8zm0-8v1h2V6H8zm0 16v1h2v-1H8zm0 4v1h2v-1H8zm0-8v1h2v-1H8zm4-10v1h11V8H12zm1 4v1h9v-1h-9z" fill="#929292" fill-rule="evenodd"/></svg>

<?xml version="1.0" encoding="UTF-8" standalone="no"?>
<svg width="32px" height="32px" viewBox="0 0 32 32" version="1.1" xmlns="http://www.w3.org/2000/svg" xmlns:xlink="http://www.w3.org/1999/xlink" xmlns:sketch="http://www.bohemiancoding.com/sketch/ns">
    <!-- Generator: Sketch 3.0.3 (7891) - http://www.bohemiancoding.com/sketch -->
    <title>icon 48 notebook</title>
    <desc>Created with Sketch.</desc>
    <defs></defs>
    <g id="Page-1" stroke="none" stroke-width="1" fill="none" fill-rule="evenodd" sketch:type="MSPage">
        <g id="icon-48-notebook" sketch:type="MSArtboardGroup" fill="#929292">
            <path d="M9.99742191,3 C8.89427625,3 8,3.89833832 8,5.00732994 L8,27.9926701 C8,29.1012878 8.89092539,30 9.99742191,30 L25.0025781,30 C26.1057238,30 27,29.1016617 27,27.9926701 L27,5.00732994 C27,3.89871223 26.1090746,3 25.0025781,3 L9.99742191,3 L9.99742191,3 Z M6,10 L6,11 L8,11 L8,10 L6,10 L6,10 Z M6,14 L6,15 L8,15 L8,14 L6,14 L6,14 Z M6,6 L6,7 L8,7 L8,6 L6,6 L6,6 Z M6,22 L6,23 L8,23 L8,22 L6,22 L6,22 Z M6,26 L6,27 L8,27 L8,26 L6,26 L6,26 Z M6,18 L6,19 L8,19 L8,18 L6,18 L6,18 Z M8,10 L8,11 L10,11 L10,10 L8,10 L8,10 Z M8,14 L8,15 L10,15 L10,14 L8,14 L8,14 Z M8,6 L8,7 L10,7 L10,6 L8,6 L8,6 Z M8,22 L8,23 L10,23 L10,22 L8,22 L8,22 Z M8,26 L8,27 L10,27 L10,26 L8,26 L8,26 Z M8,18 L8,19 L10,19 L10,18 L8,18 L8,18 Z M12,8 L12,9 L23,9 L23,8 L12,8 L12,8 Z M13,12 L13,13 L22,13 L22,12 L13,12 L13,12 Z" id="notebook" sketch:type="MSShapeGroup"></path>
        </g>
    </g>
</svg>
